X:104
T:Mage on a Cree
Z:Jack Campin, http://www.campin.me.uk/
F:Jack Campin's Nine-Note Tunebook
% last edit 03-02-2013
S:Playford
N:possibly Irish
M:6/8
L:1/8
Q:3/8=100
K:DDor
D|D>GA/B/ c2G|E2C G2E|F>GA A>GA| F>ED A2
D|D>GA/B/ c2G|E2C G2E|F>GA B>cd|^c>Bc d2||

